tools/download-figma-icons/icons/solid/apartment-building-alternative.svg

<svg width="24" height="25" viewBox="0 0 24 25" fill="none" xmlns="http://www.w3.org/2000/svg">
<path d="M23.6627 7.62937L12.4127 0.129375C12.1652 -0.043125 11.8352 -0.043125 11.5877 0.129375L0.3377 7.62937C-0.00730015 7.85437 -0.1048 8.31938 0.1277 8.66438C0.3527 9.00937 0.8177 9.10687 1.1627 8.87437L1.5002 8.65687V23.2519C1.5002 23.6644 1.8377 24.0019 2.2502 24.0019H6.0002V17.2519C6.0002 16.8394 6.3377 16.5019 6.7502 16.5019H10.5002C10.9127 16.5019 11.2502 16.8394 11.2502 17.2519V24.0019H21.7502C22.1627 24.0019 22.5002 23.6644 22.5002 23.2519V8.65687L22.8377 8.87437C22.9652 8.96437 23.1077 9.00187 23.2502 9.00187C23.4902 9.00187 23.7302 8.88188 23.8727 8.66438C24.1052 8.31938 24.0077 7.85437 23.6627 7.62937ZM10.5002 15.0019H6.7502C6.3377 15.0019 6.0002 14.6644 6.0002 14.2519C6.0002 13.8394 6.3377 13.5019 6.7502 13.5019H10.5002C10.9127 13.5019 11.2502 13.8394 11.2502 14.2519C11.2502 14.6644 10.9127 15.0019 10.5002 15.0019ZM10.5002 12.0019H6.7502C6.3377 12.0019 6.0002 11.6644 6.0002 11.2519C6.0002 10.8394 6.3377 10.5019 6.7502 10.5019H10.5002C10.9127 10.5019 11.2502 10.8394 11.2502 11.2519C11.2502 11.6644 10.9127 12.0019 10.5002 12.0019ZM10.5002 9.00187H6.7502C6.3377 9.00187 6.0002 8.66437 6.0002 8.25187C6.0002 7.83937 6.3377 7.50187 6.7502 7.50187H10.5002C10.9127 7.50187 11.2502 7.83937 11.2502 8.25187C11.2502 8.66437 10.9127 9.00187 10.5002 9.00187ZM17.2502 18.0019H13.5002C13.0877 18.0019 12.7502 17.6644 12.7502 17.2519C12.7502 16.8394 13.0877 16.5019 13.5002 16.5019H17.2502C17.6627 16.5019 18.0002 16.8394 18.0002 17.2519C18.0002 17.6644 17.6627 18.0019 17.2502 18.0019ZM17.2502 15.0019H13.5002C13.0877 15.0019 12.7502 14.6644 12.7502 14.2519C12.7502 13.8394 13.0877 13.5019 13.5002 13.5019H17.2502C17.6627 13.5019 18.0002 13.8394 18.0002 14.2519C18.0002 14.6644 17.6627 15.0019 17.2502 15.0019ZM17.2502 12.0019H13.5002C13.0877 12.0019 12.7502 11.6644 12.7502 11.2519C12.7502 10.8394 13.0877 10.5019 13.5002 10.5019H17.2502C17.6627 10.5019 18.0002 10.8394 18.0002 11.2519C18.0002 11.6644 17.6627 12.0019 17.2502 12.0019ZM17.2502 9.00187H13.5002C13.0877 9.00187 12.7502 8.66437 12.7502 8.25187C12.7502 7.83937 13.0877 7.50187 13.5002 7.50187H17.2502C17.6627 7.50187 18.0002 7.83937 18.0002 8.25187C18.0002 8.66437 17.6627 9.00187 17.2502 9.00187Z" fill="black"/>
</svg>

<svg xmlns="http://www.w3.org/2000/svg" width="24" height="25" fill="none" viewBox="0 0 24 25"><path fill="currentColor" d="M23.663 7.63 12.413.13a.72.72 0 0 0-.825 0L.338 7.63a.74.74 0 0 0-.21 1.034.74.74 0 0 0 1.035.21l.337-.217v14.595c0 .412.338.75.75.75H6v-6.75c0-.413.338-.75.75-.75h3.75c.413 0 .75.337.75.75v6.75h10.5c.413 0 .75-.338.75-.75V8.657l.338.217c.127.09.27.128.412.128.24 0 .48-.12.623-.338a.74.74 0 0 0-.21-1.035M10.5 15.001H6.75a.75.75 0 0 1-.75-.75c0-.413.338-.75.75-.75h3.75c.413 0 .75.337.75.75 0 .412-.337.75-.75.75m0-3H6.75a.75.75 0 0 1-.75-.75c0-.413.338-.75.75-.75h3.75c.413 0 .75.337.75.75 0 .412-.337.75-.75.75m0-3H6.75a.75.75 0 0 1-.75-.75c0-.413.338-.75.75-.75h3.75c.413 0 .75.337.75.75 0 .412-.337.75-.75.75m6.75 9H13.5a.75.75 0 0 1-.75-.75c0-.413.338-.75.75-.75h3.75c.413 0 .75.337.75.75 0 .412-.337.75-.75.75m0-3H13.5a.75.75 0 0 1-.75-.75c0-.413.338-.75.75-.75h3.75c.413 0 .75.337.75.75 0 .412-.337.75-.75.75m0-3H13.5a.75.75 0 0 1-.75-.75c0-.413.338-.75.75-.75h3.75c.413 0 .75.337.75.75 0 .412-.337.75-.75.75m0-3H13.5a.75.75 0 0 1-.75-.75c0-.413.338-.75.75-.75h3.75c.413 0 .75.337.75.75 0 .412-.337.75-.75.75"/></svg>
